public/principles-icon.svg

<svg height="60.356" viewBox="0 0 89.793 60.356" width="89.793" xmlns="http://www.w3.org/2000/svg" xmlns:xlink="http://www.w3.org/1999/xlink"><clipPath id="a"><path d="m0 0h89.793v60.356h-89.793z"/></clipPath><g clip-path="url(#a)"><path d="m88.836 19.756-42.844-19.607a1.64 1.64 0 0 0 -1.354 0l-43.67 19.603a1.639 1.639 0 0 0 -.024 2.98l18.728 8.776v13.992a2.871 2.871 0 0 0 0 4.728v.489l-.976 5.8-.066.385c0 1 1.242 1.812 2.779 1.812s2.783-.811 2.783-1.812l-.094-.455-1.147-5.6v-.623a2.867 2.867 0 0 0 0-4.723v-12.457l21.663 10.156a1.638 1.638 0 0 0 1.4-.005l22-10.51v13.065a4.766 4.766 0 0 1 -.15 1.407 29.982 29.982 0 0 1 -22.55 9.921 30.691 30.691 0 0 1 -15.657-4.236 1.639 1.639 0 0 0 -1.672 2.82 33.97 33.97 0 0 0 17.329 4.695 33.251 33.251 0 0 0 25.086-11.11c.433-.466.9-1.445.9-3.5v-14.633l17.56-8.388a1.64 1.64 0 0 0 -.024-2.97m-43.536 20.144-19.836-9.3 17.326-7.722a1.639 1.639 0 0 0 -1.335-2.995l-19.917 8.878-15.967-7.482 39.729-17.839 38.983 17.839z" fill="#fff"/></g></svg>

<svg id="principles_icon" data-name="principles icon" xmlns="http://www.w3.org/2000/svg" xmlns:xlink="http://www.w3.org/1999/xlink" width="89.793" height="60.356" viewBox="0 0 89.793 60.356">
  <defs>
    <clipPath id="clip-path">
      <rect id="Rectangle_23" data-name="Rectangle 23" width="89.793" height="60.356" fill="#fff"/>
    </clipPath>
  </defs>
  <g id="Group_11" data-name="Group 11" clip-path="url(#clip-path)">
    <path id="Path_28" data-name="Path 28" d="M88.836,19.756,45.992.149a1.64,1.64,0,0,0-1.354,0L.968,19.752a1.639,1.639,0,0,0-.024,2.98l18.728,8.776V45.5a2.871,2.871,0,0,0,0,4.728v.489l-.976,5.8-.066.385c0,1,1.242,1.812,2.779,1.812s2.783-.811,2.783-1.812l-.094-.455-1.147-5.6v-.623a2.867,2.867,0,0,0,0-4.723V33.044L44.614,43.2a1.638,1.638,0,0,0,1.4-.005l22-10.51V45.75a4.766,4.766,0,0,1-.15,1.407,29.982,29.982,0,0,1-22.55,9.921,30.691,30.691,0,0,1-15.657-4.236,1.639,1.639,0,0,0-1.672,2.82,33.97,33.97,0,0,0,17.329,4.695A33.251,33.251,0,0,0,70.4,49.247c.433-.466.9-1.445.9-3.5V31.114L88.86,22.726a1.64,1.64,0,0,0-.024-2.97M45.3,39.9,25.464,30.6,42.79,22.878a1.639,1.639,0,0,0-1.335-2.995L21.538,28.761,5.571,21.279,45.3,3.44,84.283,21.279Z" transform="translate(0 0)" fill="#fff"/>
  </g>
</svg>
